source/_/img/toshi-green.svg

<svg height="199" viewBox="0 0 490 199" width="490" xmlns="http://www.w3.org/2000/svg" xmlns:xlink="http://www.w3.org/1999/xlink"><linearGradient id="a" x1="50%" x2="50%" y1="0%" y2="100%"><stop offset="0" stop-color="#52ff5b"/><stop offset="1" stop-color="#02be6e"/></linearGradient><g fill="none" fill-rule="evenodd"><path d="m79 70h55v57h-55z" fill="#fff"/><path d="m106 166c-37.0030782 0-67-29.996922-67-67 0-37.0030782 29.9969218-67 67-67 37.003078 0 67 29.9969218 67 67 0 37.003078-29.996922 67-67 67zm-18-88c-1.6568542 0-3 1.3431458-3 3v36c0 1.656854 1.3431458 3 3 3h36c1.656854 0 3-1.343146 3-3v-36c0-1.6568542-1.343146-3-3-3z" fill="url(#a)"/><path d="m34.3219131 68.8502843h-16.0637087v-50.7643715h-18.2582044v-13.04485152h52.6240074v13.04485152h-18.3020943zm40.5647315 1.1497157c-15.6248096 0-24.8855815-9.5957044-24.8855815-25.7801642 0-15.9191409 9.5241114-25.7359445 24.8855815-25.7359445 15.4492499 0 24.8855815 9.7283639 24.8855815 25.7359445 0 16.2286797-9.2168821 25.7801642-24.8855815 25.7801642zm0-11.9393557c5.7056889 0 8.9535425-5.0852811 8.9535425-13.8408085 0-8.5786482-3.3356335-13.7965888-8.9535425-13.7965888-5.6179091 0-8.9535426 5.2179406-8.9535426 13.7965888 0 8.7997473 3.2478537 13.8408085 8.9535426 13.8408085zm31.3478494-23.6133922c0 7.7384712 4.784001 12.5584333 14.483672 14.6367656l9.085212 1.9456728c3.906202.8401768 5.35457 1.9456727 5.35457 4.024005 0 2.6531902-2.765065 4.3777638-7.022387 4.3777638-4.564551 0-7.329615-1.636134-8.119634-4.6873026h-14.966461c.877799 9.9052432 8.865763 15.2558433 22.866646 15.2558433 13.649763 0 22.559416-6.5445357 22.559416-16.7593178 0-7.4731522-4.169542-11.4971572-13.781433-13.5312697l-10.094681-2.0783323c-3.862312-.8401769-5.617909-2.0783323-5.617909-4.1566645 0-2.6531902 2.808955-4.4219836 6.846827-4.4219836 4.213432 0 6.802937 1.7245736 7.241836 4.5988629h14.132552c-.570569-9.9052432-7.987964-15.1674037-21.506058-15.1674037-13.166974 0-21.462168 6.1907771-21.462168 15.9633608zm52.327229 34.4030322h15.493139v-27.9027164c0-5.660139 3.160074-9.5072647 8.470754-9.5072647 5.13512 0 7.900184 3.228048 7.900184 9.3303854v28.0795957h15.49314v-31.6171826c0-11.9393556-6.100698-18.5281112-16.722057-18.5281112-7.022386 0-12.464736 3.4491472-14.615342 9.1092862h-.833908v-26.62034113h-15.18591zm56.891779 0h15.53703v-49.2166772h-15.53703zm7.768515-54.921036c5.486239 0 8.777983-2.7858497 8.777983-6.94251425 0-4.2008844-3.291744-6.98673405-8.777983-6.98673405-5.442349 0-8.734093 2.78584965-8.734093 6.98673405 0 4.15666455 3.291744 6.94251425 8.734093 6.94251425z" fill="#fff" transform="translate(201 62)"/></g></svg>

<?xml version="1.0" encoding="UTF-8"?>
<svg width="490px" height="199px" viewBox="0 0 490 199" version="1.1" xmlns="http://www.w3.org/2000/svg" xmlns:xlink="http://www.w3.org/1999/xlink" style="background: #FFFFFF;">
    <!-- Generator: Sketch 47.1 (45422) - http://www.bohemiancoding.com/sketch -->
    <title>logotype-green logo + white text</title>
    <desc>Created with Sketch.</desc>
    <defs>
        <linearGradient x1="50%" y1="0%" x2="50%" y2="100%" id="linearGradient-1">
            <stop stop-color="#52FF5B" offset="0%"></stop>
            <stop stop-color="#02BE6E" offset="100%"></stop>
        </linearGradient>
    </defs>
    <g id="Page-1" stroke="none" stroke-width="1" fill="none" fill-rule="evenodd">
        <g id="logotype-green-logo-+-white-text">
            <rect id="Rectangle" fill="#FFFFFF" x="79" y="70" width="55" height="57"></rect>
            <path d="M106,166 C68.9969218,166 39,136.003078 39,99 C39,61.9969218 68.9969218,32 106,32 C143.003078,32 173,61.9969218 173,99 C173,136.003078 143.003078,166 106,166 Z M88,78 C86.3431458,78 85,79.3431458 85,81 L85,117 C85,118.656854 86.3431458,120 88,120 L124,120 C125.656854,120 127,118.656854 127,117 L127,81 C127,79.3431458 125.656854,78 124,78 L88,78 Z" id="Combined-Shape" fill="url(#linearGradient-1)"></path>
            <g id="Group" transform="translate(201.000000, 62.000000)" fill="#FFFFFF">
                <path d="M34.3219131,68.8502843 L18.2582044,68.8502843 L18.2582044,18.0859128 L0,18.0859128 L0,5.04106128 L52.6240074,5.04106128 L52.6240074,18.0859128 L34.3219131,18.0859128 L34.3219131,68.8502843 Z M74.8866446,70 C59.261835,70 50.0010631,60.4042956 50.0010631,44.2198358 C50.0010631,28.3006949 59.5251745,18.4838913 74.8866446,18.4838913 C90.3358945,18.4838913 99.7722261,28.2122552 99.7722261,44.2198358 C99.7722261,60.4485155 90.555344,70 74.8866446,70 Z M74.8866446,58.0606443 C80.5923335,58.0606443 83.8401871,52.9753632 83.8401871,44.2198358 C83.8401871,35.6411876 80.5045536,30.423247 74.8866446,30.423247 C69.2687355,30.423247 65.933102,35.6411876 65.933102,44.2198358 C65.933102,53.0195831 69.1809557,58.0606443 74.8866446,58.0606443 Z M106.234494,34.4472521 C106.234494,42.1857233 111.018495,47.0056854 120.718166,49.0840177 L129.803378,51.0296905 C133.70958,51.8698673 135.157948,52.9753632 135.157948,55.0536955 C135.157948,57.7068857 132.392883,59.4314593 128.135561,59.4314593 C123.57101,59.4314593 120.805946,57.7953253 120.015927,54.7441567 L105.049466,54.7441567 C105.927265,64.6493999 113.915229,70 127.916112,70 C141.565875,70 150.475528,63.4554643 150.475528,53.2406822 C150.475528,45.76753 146.305986,41.743525 136.694095,39.7094125 L126.599414,37.6310802 C122.737102,36.7909033 120.981505,35.5527479 120.981505,33.4744157 C120.981505,30.8212255 123.79046,29.0524321 127.828332,29.0524321 C132.041764,29.0524321 134.631269,30.7770057 135.070168,33.651295 L149.20272,33.651295 C148.632151,23.7460518 141.214756,18.4838913 127.696662,18.4838913 C114.529688,18.4838913 106.234494,24.6746684 106.234494,34.4472521 Z M158.561723,68.8502843 L174.054862,68.8502843 L174.054862,40.9475679 C174.054862,35.2874289 177.214936,31.4403032 182.525616,31.4403032 C187.660736,31.4403032 190.4258,34.6683512 190.4258,40.7706886 L190.4258,68.8502843 L205.91894,68.8502843 L205.91894,37.2331017 C205.91894,25.2937461 199.818242,18.7049905 189.196883,18.7049905 C182.174497,18.7049905 176.732147,22.1541377 174.581541,27.8142767 L173.747633,27.8142767 L173.747633,1.19393557 L158.561723,1.19393557 L158.561723,68.8502843 Z M215.453502,68.8502843 L230.990532,68.8502843 L230.990532,19.6336071 L215.453502,19.6336071 L215.453502,68.8502843 Z M223.222017,13.9292483 C228.708256,13.9292483 232,11.1433986 232,6.98673405 C232,2.78584965 228.708256,0 223.222017,0 C217.779668,0 214.487924,2.78584965 214.487924,6.98673405 C214.487924,11.1433986 217.779668,13.9292483 223.222017,13.9292483 Z" id="Toshi"></path>
            </g>
        </g>
    </g>
</svg>
